X: 1330
T: Captain Kelly's Reel
R:Reel
N:Collected by F. O'Neill
B:O'Neill's 1330
Z:Transcribed by Trish O'Neil
M:C|
L:1/8
K:G
D2|GBAFG2(ge)|dBAc BE-~E2|GBAFG2(ge)|dBcA T(BG)G2|
G2(ef) (3ggg (ge)|dBAc BE-~E2|G2(Bd) {a}gfge|dBABG2||
d2|g2(bg) agbg|egdg egdf|g2(bg) agbg|dgfag2d2|
g2(bg) agbg|egdg egdf|gafg efdf|(3efg (fa) "D.C."gedB|]


